X:423
T: Regina wollt' in den Garten gehn (5-19), S. 38
N: P0693
O: Lothringen
S: MERKELBACH-PINCK, Angelika: Verklingende Weisen, Bd 5, Kassel 1962]
R: geistliches, religises Lied]
M: 4/4
L: 1/8
K: E
=GF | E=DE2B2A=c | B2A=GF2
FG | A2BA=G2F2 | E6z2 |
(3=G2F(3E2=DE4 | BAA=cB2A=G | F6
F=G | A2BA=G2F2 | E2z4

@@@ Tune index: 7973
